X:8
T:Stamp Strangely
T:to the tune of "Jack Pudding"
B:Gog Magog Molly Tunes
M:6/8
L:1/8
K:G
P:A
B,|"Em"E2E "D"F2D|"Em"GE2 "Bm"A2F|"Am"BG2 "Bm"F2E|"Em"E3-E2:|
P:B
e|"G"dB2 "D"c2A|"G"BG2 "D"A2F|"Em"GE2 "D"FD2|"G"G3-G2G|
"D"AF2 B2G|"Bm"FD2 G2A|"Em"BG2 "Bm"AF2|"Em"E3-E2|]
